X:17998
T: Unknown
C: Unknown (Michael Kamen)
S:David Wood [dmw7477@ksu.edu], Irtrad-l,11/98
M: 12/8
R: Double Jig
K: A minor
Q: 120
L: 1/8
T:Unknown
M:12/8
L:1/8
Q:120
H:Last of the Mohicans
R:Double Jig
K:A minor
|: A,A,A, FED EDC DCA, | A,A,A, FED EDC DCA, | CCC EEE GEE EDE |
CCC EEE GEE EDE | FFF FFF GFF FED | EEE EEE GEE EDC |
DDD DDD FED EDC | A,A,A,FED EDC DCA, :|
